src/xmb/flatui/Nintendo - Super Nintendo Entertainment System-content.svg

<?xml version="1.0" encoding="UTF-8" standalone="no"?>
<!-- Created with Inkscape (http://www.inkscape.org/) -->

<svg
   xmlns:dc="http://purl.org/dc/elements/1.1/"
   xmlns:cc="http://creativecommons.org/ns#"
   xmlns:rdf="http://www.w3.org/1999/02/22-rdf-syntax-ns#"
   xmlns:svg="http://www.w3.org/2000/svg"
   xmlns="http://www.w3.org/2000/svg"
   xmlns:sodipodi="http://sodipodi.sourceforge.net/DTD/sodipodi-0.dtd"
   xmlns:inkscape="http://www.inkscape.org/namespaces/inkscape"
   id="svg4993"
   version="1.1"
   inkscape:version="0.92.3 (2405546, 2018-03-11)"
   width="64"
   height="64"
   sodipodi:docname="Nintendo - Super Nintendo Entertainment System-content.svg"
   inkscape:export-filename="/home/kivutar/Bureau/lakka-menu/snes-cartidge.png"
   inkscape:export-xdpi="270"
   inkscape:export-ydpi="270">
  <metadata
     id="metadata4999">
    <rdf:RDF>
      <cc:Work
         rdf:about="">
        <dc:format>image/svg+xml</dc:format>
        <dc:type
           rdf:resource="http://purl.org/dc/dcmitype/StillImage" />
        <dc:title />
      </cc:Work>
    </rdf:RDF>
  </metadata>
  <defs
     id="defs4997">
    <inkscape:path-effect
       effect="skeletal"
       id="path-effect6084"
       is_visible="true"
       pattern="M 0,5 C 0,2.24 2.24,0 5,0 7.76,0 10,2.24 10,5 10,7.76 7.76,10 5,10 2.24,10 0,7.76 0,5 z"
       copytype="single_stretched"
       prop_scale="1"
       scale_y_rel="false"
       spacing="0"
       normal_offset="0"
       tang_offset="0"
       prop_units="false"
       vertical_pattern="false"
       fuse_tolerance="0" />
  </defs>
  <sodipodi:namedview
     pagecolor="#ffffff"
     bordercolor="#666666"
     borderopacity="1"
     objecttolerance="10"
     gridtolerance="10"
     guidetolerance="10"
     inkscape:pageopacity="0"
     inkscape:pageshadow="2"
     inkscape:window-width="1024"
     inkscape:window-height="705"
     id="namedview4995"
     showgrid="true"
     inkscape:zoom="5.6568542"
     inkscape:cx="28.682439"
     inkscape:cy="34.567478"
     inkscape:window-x="-8"
     inkscape:window-y="-8"
     inkscape:window-maximized="1"
     inkscape:current-layer="layer4">
    <inkscape:grid
       type="xygrid"
       id="grid5003"
       empspacing="4"
       visible="true"
       enabled="true"
       snapvisiblegridlinesonly="true" />
  </sodipodi:namedview>
  <g
     inkscape:groupmode="layer"
     id="layer4"
     inkscape:label="logo"
     style="display:inline">
    <path
       style="fill:#95a5a6;fill-opacity:1;stroke:none"
       d="m 1.9999997,10.999999 c -0.5534,0 -1.00000004,0.4466 -1.00000004,1 l 0,0.3125 0,0.6875 0,0.6875 c 0,0.170956 0.14154404,0.3125 0.31250004,0.3125 l 0.6875,0 1,0 0,1.000001 -1.625,0 c -0.207804,0 -0.37500004,0.167195 -0.37500004,0.375 l 0,0.25 c 0,0.207805 0.16719604,0.375 0.37500004,0.375 l 1.625,0 0,1 -1.625,0 c -0.209217,0 -0.37500004,0.165783 -0.37500004,0.375 l 0,0.25 c 0,0.209217 0.16578304,0.375 0.37500004,0.375 l 1.625,0 0,1 -1.625,0 c -0.209217,0 -0.37500004,0.165783 -0.37500004,0.375 l 0,0.25 c 0,0.209217 0.16578304,0.375 0.37500004,0.375 l 1.625,0 0,1 -1.625,0 c -0.209217,0 -0.37500004,0.165783 -0.37500004,0.375 l 0,0.25 c 0,0.209217 0.16578304,0.375 0.37500004,0.375 l 1.625,0 0,1 -1.4375,0 c -0.31176,0 -0.56250004,0.25074 -0.56250004,0.5625 l 0,26.4375 0,1.4375 0,0.5625 c 0,0.554 0.44600004,1 1.00000004,1 l 1.5312499,0 0.46875,0 7.4687504,0 C 11.762916,53 12,52.762916 12,52.46875 12,52.762916 12.237084,53 12.53125,53 l 38.937499,0 c 0.294166,0 0.53125,-0.237084 0.53125,-0.53125 0,0.294166 0.237084,0.53125 0.53125,0.53125 l 7.9375,0 1.53125,0 c 0.554,0 1,-0.446 1,-1 l 0,-0.5625 0,-27.875 c 0,-0.31176 -0.25074,-0.5625 -0.5625,-0.5625 l -1.4375,0 0,-1 1.625,0 c 0.209217,0 0.375,-0.165783 0.375,-0.375 l 0,-0.25 c 0,-0.209217 -0.165783,-0.375 -0.375,-0.375 l -1.625,0 0,-1 1.625,0 c 0.209217,0 0.375,-0.165783 0.375,-0.375 l 0,-0.25 c 0,-0.209217 -0.165783,-0.375 -0.375,-0.375 l -1.625,0 0,-1 1.625,0 c 0.207805,0 0.375,-0.167195 0.375,-0.375 l 0,-0.25 c 0,-0.207805 -0.167195,-0.375 -0.375,-0.375 l -1.625,0 0,-1 1.625,0 c 0.207805,0 0.375,-0.167195 0.375,-0.375 l 0,-0.25 c 0,-0.207805 -0.167195,-0.375 -0.375,-0.375 l -1.625,0 0,-1.000001 1.6875,0 c 0.170956,0 0.3125,-0.141544 0.3125,-0.3125 l 0,-0.6875 0,-1 c 0,-0.554001 -0.445999,-1 -1,-1 l -1.53125,0 -7.9375,0 c -0.294166,0 -0.53125,0.237084 -0.53125,0.53125 0,-0.294166 -0.237084,-0.53125 -0.53125,-0.53125 l -38.937499,0 c -0.294166,0 -0.53125,0.237084 -0.53125,0.53125 0,-0.294166 -0.237084,-0.53125 -0.53125,-0.53125 l -7.4687504,0 -1.9999999,0 z"
       id="rect5055"
       inkscape:connector-curvature="0" />
    <path
       style="fill:#7f8c8d;fill-opacity:1;stroke:none;display:inline"
       d="m 61,22 c -0.273558,0 -0.5,0.226446 -0.5,0.5 0,0.273558 0.226442,0.5 0.5,0.5 l 0.5,0 0.5,0 0.5,0 C 62.226442,23 62,22.773558 62,22.5 62,22.226446 62.226442,22 62.5,22 L 62,22 61.5,22 61,22 z"
       id="rect5055-5-7-1-4"
       inkscape:connector-curvature="0" />
    <path
       sodipodi:type="arc"
       style="fill:#7f8c8d;fill-opacity:1;stroke:none"
       id="path6048"
       sodipodi:cx="58"
       sodipodi:cy="50"
       sodipodi:rx="1"
       sodipodi:ry="1"
       d="m 59,50 a 1,1 0 1 1 -2,0 1,1 0 1 1 2,0 z" />
    <path
       transform="translate(-52,0)"
       sodipodi:type="arc"
       style="fill:#7f8c8d;fill-opacity:1;stroke:none;display:inline"
       id="path6048-8"
       sodipodi:cx="58"
       sodipodi:cy="50"
       sodipodi:rx="1"
       sodipodi:ry="1"
       d="m 59,50 a 1,1 0 1 1 -2,0 1,1 0 1 1 2,0 z" />
    <rect
       style="fill:#7f8c8d;fill-opacity:1;stroke:none"
       id="rect6068"
       width="34"
       height="3"
       x="15"
       y="37"
       ry="1.5" />
    <rect
       style="fill:#616c6d;fill-opacity:1;stroke:none"
       id="rect6070"
       width="12"
       height="3"
       x="26"
       y="37"
       ry="0" />
    <rect
       style="fill:#2980b9;fill-opacity:1;stroke:none"
       id="rect5485"
       width="50"
       height="18"
       x="7"
       y="13"
       ry="3" />
    <path
       inkscape:connector-curvature="0"
       style="fill:#7f8c8d;fill-opacity:1;stroke:none;display:inline"
       d="m 61,20 c -0.273558,0 -0.5,0.226446 -0.5,0.5 0,0.273558 0.226442,0.5 0.5,0.5 l 0.5,0 0.5,0 0.5,0 C 62.226442,21 62,20.773558 62,20.5 62,20.226446 62.226442,20 62.5,20 L 62,20 61.5,20 61,20 z"
       id="rect5055-5-7-1-4-2" />
    <path
       inkscape:connector-curvature="0"
       style="fill:#7f8c8d;fill-opacity:1;stroke:none;display:inline"
       d="m 61,18 c -0.273558,0 -0.5,0.226446 -0.5,0.5 0,0.273558 0.226442,0.5 0.5,0.5 l 0.5,0 0.5,0 0.5,0 C 62.226442,19 62,18.773558 62,18.5 62,18.226446 62.226442,18 62.5,18 L 62,18 61.5,18 61,18 z"
       id="rect5055-5-7-1-4-27" />
    <path
       inkscape:connector-curvature="0"
       style="fill:#7f8c8d;fill-opacity:1;stroke:none;display:inline"
       d="m 61,16 c -0.273558,0 -0.5,0.226446 -0.5,0.5 0,0.273558 0.226442,0.5 0.5,0.5 l 0.5,0 0.5,0 0.5,0 C 62.226442,17 62,16.773558 62,16.5 62,16.226446 62.226442,16 62.5,16 L 62,16 61.5,16 61,16 z"
       id="rect5055-5-7-1-4-2-8" />
    <path
       inkscape:connector-curvature="0"
       style="fill:#7f8c8d;fill-opacity:1;stroke:none;display:inline"
       d="m 61,14 c -0.273558,0 -0.5,0.226446 -0.5,0.5 0,0.273558 0.226442,0.5 0.5,0.5 l 0.5,0 0.5,0 0.5,0 C 62.226442,15 62,14.773558 62,14.5 62,14.226446 62.226442,14 62.5,14 L 62,14 61.5,14 61,14 z"
       id="rect5055-5-7-1-4-2-8-8" />
    <path
       inkscape:connector-curvature="0"
       style="fill:#7f8c8d;fill-opacity:1;stroke:none;display:inline"
       d="m 3,22 c 0.273558,0 0.5,0.226446 0.5,0.5 C 3.5,22.773558 3.273558,23 3,23 L 2.5,23 2,23 1.5,23 C 1.773558,23 2,22.773558 2,22.5 2,22.226446 1.773558,22 1.5,22 L 2,22 2.5,22 3,22 z"
       id="rect5055-5-7-1-4-35" />
    <path
       inkscape:connector-curvature="0"
       style="fill:#7f8c8d;fill-opacity:1;stroke:none;display:inline"
       d="m 3,20 c 0.273558,0 0.5,0.226446 0.5,0.5 C 3.5,20.773558 3.273558,21 3,21 L 2.5,21 2,21 1.5,21 C 1.773558,21 2,20.773558 2,20.5 2,20.226446 1.773558,20 1.5,20 L 2,20 2.5,20 3,20 z"
       id="rect5055-5-7-1-4-2-4" />
    <path
       inkscape:connector-curvature="0"
       style="fill:#7f8c8d;fill-opacity:1;stroke:none;display:inline"
       d="m 3,18 c 0.273558,0 0.5,0.226446 0.5,0.5 C 3.5,18.773558 3.273558,19 3,19 L 2.5,19 2,19 1.5,19 C 1.773558,19 2,18.773558 2,18.5 2,18.226446 1.773558,18 1.5,18 L 2,18 2.5,18 3,18 z"
       id="rect5055-5-7-1-4-27-3" />
    <path
       inkscape:connector-curvature="0"
       style="fill:#7f8c8d;fill-opacity:1;stroke:none;display:inline"
       d="m 3,16 c 0.273558,0 0.5,0.226446 0.5,0.5 C 3.5,16.773558 3.273558,17 3,17 L 2.5,17 2,17 1.5,17 C 1.773558,17 2,16.773558 2,16.5 2,16.226446 1.773558,16 1.5,16 L 2,16 2.5,16 3,16 z"
       id="rect5055-5-7-1-4-2-8-1" />
    <path
       inkscape:connector-curvature="0"
       style="fill:#7f8c8d;fill-opacity:1;stroke:none;display:inline"
       d="m 3,14 c 0.273558,0 0.5,0.226446 0.5,0.5 C 3.5,14.773558 3.273558,15 3,15 L 2.5,15 2,15 1.5,15 C 1.773558,15 2,14.773558 2,14.5 2,14.226446 1.773558,14 1.5,14 L 2,14 2.5,14 3,14 z"
       id="rect5055-5-7-1-4-2-8-8-8" />
  </g>
</svg>

<svg xmlns="http://www.w3.org/2000/svg" width="64" height="64"><g style="display:inline"><path d="M2 11a1 1 0 0 0-1 1v1.687c0 .171.142.313.312.313H3v1H1.375a.374.374 0 0 0-.375.375v.25c0 .208.167.375.375.375H3v1H1.375a.37.37 0 0 0-.375.375v.25c0 .21.166.375.375.375H3v1H1.375a.37.37 0 0 0-.375.375v.25c0 .21.166.375.375.375H3v1H1.375a.37.37 0 0 0-.375.375v.25c0 .21.166.375.375.375H3v1H1.562a.56.56 0 0 0-.562.563V52c0 .554.446 1 1 1h9.469a.53.53 0 0 0 .531-.531.53.53 0 0 0 .531.531H51.47a.53.53 0 0 0 .531-.531.53.53 0 0 0 .531.531H62c.554 0 1-.446 1-1V23.562a.56.56 0 0 0-.563-.562H61v-1h1.625c.21 0 .375-.166.375-.375v-.25a.37.37 0 0 0-.375-.375H61v-1h1.625c.21 0 .375-.166.375-.375v-.25a.37.37 0 0 0-.375-.375H61v-1h1.625a.374.374 0 0 0 .375-.375v-.25a.374.374 0 0 0-.375-.375H61v-1h1.625a.374.374 0 0 0 .375-.375v-.25a.374.374 0 0 0-.375-.375H61v-1h1.687a.315.315 0 0 0 .313-.313V12c0-.554-.446-1-1-1h-9.469a.53.53 0 0 0-.531.531.53.53 0 0 0-.531-.531H12.53a.53.53 0 0 0-.531.531.53.53 0 0 0-.531-.531z" style="fill:#95a5a6;fill-opacity:1;stroke:none"/><path d="M61 22c-.274 0-.5.226-.5.5s.226.5.5.5h1.5a.503.503 0 0 1-.5-.5c0-.274.226-.5.5-.5z" style="fill:#7f8c8d;fill-opacity:1;stroke:none;display:inline"/><path d="M59 50a1 1 0 1 1-2 0 1 1 0 1 1 2 0" style="fill:#7f8c8d;fill-opacity:1;stroke:none"/><path d="M59 50a1 1 0 1 1-2 0 1 1 0 1 1 2 0" style="fill:#7f8c8d;fill-opacity:1;stroke:none;display:inline" transform="translate(-52)"/><rect width="34" height="3" x="15" y="37" ry="1.5" style="fill:#7f8c8d;fill-opacity:1;stroke:none"/><rect width="12" height="3" x="26" y="37" ry="0" style="fill:#616c6d;fill-opacity:1;stroke:none"/><rect width="50" height="18" x="7" y="13" ry="3" style="fill:#2980b9;fill-opacity:1;stroke:none"/><path d="M61 20c-.274 0-.5.226-.5.5s.226.5.5.5h1.5a.503.503 0 0 1-.5-.5c0-.274.226-.5.5-.5zm0-2c-.274 0-.5.226-.5.5s.226.5.5.5h1.5a.503.503 0 0 1-.5-.5c0-.274.226-.5.5-.5zm0-2c-.274 0-.5.226-.5.5s.226.5.5.5h1.5a.503.503 0 0 1-.5-.5c0-.274.226-.5.5-.5zm0-2c-.274 0-.5.226-.5.5s.226.5.5.5h1.5a.503.503 0 0 1-.5-.5c0-.274.226-.5.5-.5zM3 22c.274 0 .5.226.5.5s-.226.5-.5.5H1.5c.274 0 .5-.226.5-.5s-.226-.5-.5-.5zm0-2c.274 0 .5.226.5.5s-.226.5-.5.5H1.5c.274 0 .5-.226.5-.5s-.226-.5-.5-.5zm0-2c.274 0 .5.226.5.5s-.226.5-.5.5H1.5c.274 0 .5-.226.5-.5s-.226-.5-.5-.5zm0-2c.274 0 .5.226.5.5s-.226.5-.5.5H1.5c.274 0 .5-.226.5-.5s-.226-.5-.5-.5zm0-2c.274 0 .5.226.5.5s-.226.5-.5.5H1.5c.274 0 .5-.226.5-.5s-.226-.5-.5-.5z" style="fill:#7f8c8d;fill-opacity:1;stroke:none;display:inline"/></g></svg>
